; generated by Slic3r 1.3.0-dev on 2018-05-15 at 20:10:26

; external perimeters extrusion width = 0.44mm (1.86mm^3/s)
; perimeters extrusion width = 0.48mm (4.15mm^3/s)
; infill extrusion width = 0.48mm (4.65mm^3/s)
; solid infill extrusion width = 0.48mm (2.70mm^3/s)
; top infill extrusion width = 0.48mm (1.16mm^3/s)
; support material extrusion width = 0.44mm (4.85mm^3/s)

M107
M190 S60 ; set bed temperature and wait for it to be reached
M104 S212 ; set temperature
G28 ; home all axes
G1 Z5 F5000 ; lift nozzle

; Filament gcode

M109 S212 ; set temperature and wait for it to be reached
G21 ; set units to millimeters
G90 ; use absolute coordinates
M82 ; use absolute distances for extrusion
G92 E0
G1 Z0.100 F7800.000
G1 E-6.00000 F2400.00000
G92 E0
G1 X44.827 Y45.720 F7800.000
G1 E6.00000 F2400.00000
G1 F1920
G1 X46.583 Y44.220 E6.06856
G1 X49.873 Y43.287 E6.17010
G1 X104.894 Y42.246 E7.80405
G1 X132.471 Y42.257 E8.62284
G1 X150.389 Y43.297 E9.15573
G1 X152.637 Y43.825 E9.22429
G1 X154.573 Y45.084 E9.29285
G1 X155.968 Y46.923 E9.36140
G1 X156.714 Y50.000 E9.45540
G1 X156.714 Y150.000 E12.42453
G1 X156.317 Y152.275 E12.49309
G1 X155.173 Y154.280 E12.56164
G1 X153.417 Y155.780 E12.63020
G1 X151.257 Y156.595 E12.69876
G1 X150.000 Y156.714 E12.73625
G1 X50.000 Y156.714 E15.70538
G1 X47.725 Y156.317 E15.77393
G1 X45.720 Y155.173 E15.84249
G1 X44.220 Y153.417 E15.91105
G1 X43.405 Y151.257 E15.97960
G1 X43.286 Y150.000 E16.01709
G1 X43.286 Y50.000 E18.98622
G1 X43.683 Y47.725 E19.05478
G1 X44.797 Y45.772 E19.12155
G1 X45.181 Y45.854 F7800.000
G1 F1920
G1 X46.923 Y44.437 E19.18825
G1 X49.880 Y43.644 E19.27912
G1 X104.894 Y42.603 E20.91287
G1 X132.451 Y42.614 E21.73105
G1 X150.368 Y43.654 E22.26395
G1 X152.552 Y44.178 E22.33064
G1 X154.418 Y45.429 E22.39733
G1 X155.732 Y47.251 E22.46403
G1 X156.357 Y50.000 E22.54774
G1 X156.357 Y150.000 E25.51687
G1 X155.960 Y152.211 E25.58356
G1 X154.819 Y154.146 E25.65025
G1 X153.077 Y155.563 E25.71695
G1 X150.000 Y156.357 E25.81129
G1 X50.000 Y156.357 E28.78042
G1 X47.789 Y155.960 E28.84711
G1 X45.854 Y154.819 E28.91381
G1 X44.437 Y153.077 E28.98050
G1 X43.643 Y150.000 E29.07484
G1 X43.643 Y50.000 E32.04397
G1 X44.040 Y47.789 E32.11066
G1 X45.150 Y45.906 E32.17557
G1 E26.17557 F2400.00000
G92 E0
G1 X127.070 Y93.500 F7800.000
G1 E6.00000 F2400.00000
G1 F1920
G1 X128.617 Y90.821 E6.09184
G1 X131.710 Y90.821 E6.18369
G1 X133.257 Y93.500 E6.27553
G1 X131.710 Y96.179 E6.36737
G1 X128.617 Y96.179 E6.45921
G1 X127.100 Y93.552 E6.54928
G1 X127.482 Y93.500 F7800.000
G1 F1920
G1 X128.823 Y91.178 E6.62888
G1 X131.504 Y91.178 E6.70848
G1 X132.844 Y93.500 E6.78808
G1 X131.504 Y95.822 E6.86768
G1 X128.823 Y95.822 E6.94728
G1 X127.512 Y93.552 E7.02510
G1 X127.136 Y93.300 F7800.000
G1 E1.02510 F2400.00000
G92 E0
G1 X109.907 Y93.500 F7800.000
G1 E6.00000 F2400.00000
G1 F1920
G1 X108.360 Y96.179 E6.09184
G1 X105.267 Y96.179 E6.18369
G1 X103.720 Y93.500 E6.27553
G1 X105.267 Y90.821 E6.36737
G1 X108.360 Y90.821 E6.45921
G1 X109.877 Y93.448 E6.54928
G1 X109.494 Y93.500 F7800.000
G1 F1920
G1 X108.154 Y95.822 E6.62888
G1 X105.473 Y95.822 E6.70848
G1 X104.132 Y93.500 E6.78808
G1 X105.473 Y91.178 E6.86768
G1 X108.154 Y91.178 E6.94728
G1 X109.464 Y93.448 E7.02510
G1 X109.841 Y93.700 F7800.000
G1 E1.02510 F2400.00000
G92 E0
G1 X108.360 Y54.679 F7800.000
G1 E6.00000 F2400.00000
G1 F1920
G1 X109.907 Y52.000 E6.09184
G1 X109.074 Y50.557 E6.14131
G1 X127.903 Y50.557 E6.70039
G1 X127.070 Y52.000 E6.74986
G1 X128.617 Y54.679 E6.84170
G1 X131.710 Y54.679 E6.93354
G1 X133.257 Y52.000 E7.02539
G1 X132.424 Y50.557 E7.07486
G1 X149.443 Y50.557 E7.58018
G1 X149.443 Y149.443 E10.51623
G1 X50.557 Y149.443 E13.45228
G1 X50.557 Y50.557 E16.38833
G1 X104.553 Y50.557 E17.99154
G1 X103.720 Y52.000 E18.04101
G1 X105.267 Y54.679 E18.13286
G1 X108.300 Y54.679 E18.22292
G1 X108.154 Y54.322 F7800.000
G1 F1920
G1 X109.494 Y52.000 E18.30252
G1 X108.455 Y50.200 E18.36423
G1 X128.522 Y50.200 E18.96003
G1 X127.482 Y52.000 E19.02175
G1 X128.823 Y54.322 E19.10135
G1 X131.504 Y54.322 E19.18095
G1 X132.844 Y52.000 E19.26055
G1 X131.805 Y50.200 E19.32226
G1 X149.800 Y50.200 E19.85655
G1 X149.800 Y149.800 E22.81381
G1 X50.200 Y149.800 E25.77106
G1 X50.200 Y50.200 E28.72831
G1 X105.172 Y50.200 E30.36049
G1 X104.132 Y52.000 E30.42220
G1 X105.473 Y54.322 E30.50180
G1 X108.094 Y54.322 E30.57962
G1 X108.500 Y54.522 F7800.000
G1 X108.449 Y55.116 F7800.000
G1 F1920
G1 X112.818 Y50.747 E30.76344
G1 X112.312 Y50.747 E30.77850
G1 X109.141 Y53.919 E30.91193
G1 X109.832 Y52.721 E30.95307
G1 X111.806 Y50.747 E31.03613
G1 X111.300 Y50.747 E31.05118
G1 X110.053 Y51.994 E31.10365
G1 X109.868 Y51.674 E31.11468
G1 X110.794 Y50.747 E31.15365
G1 X110.288 Y50.747 E31.16870
G1 X109.682 Y51.353 E31.19418
G1 X109.525 Y51.081 E31.20352
G1 X109.954 Y51.081 E31.21629
G1 E25.21629 F2400.00000
G92 E0
G1 X131.898 Y54.945 F7800.000
G1 E6.00000 F2400.00000
G1 F1920
G1 X136.096 Y50.747 E6.17663
G1 X135.590 Y50.747 E6.19168
G1 X132.589 Y53.748 E6.31793
G1 X133.281 Y52.551 E6.35906
G1 X135.084 Y50.747 E6.43493
G1 X134.578 Y50.747 E6.44999
G1 X133.376 Y51.949 E6.50053
G1 X133.191 Y51.628 E6.51155
G1 X134.072 Y50.747 E6.54860
G1 X133.566 Y50.747 E6.56365
G1 X133.006 Y51.307 E6.58720
G1 X132.875 Y51.081 E6.59497
G1 X133.232 Y51.081 E6.60559
G1 E0.60559 F2400.00000
G92 E0
G1 X128.092 Y91.137 F7800.000
G1 E6.00000 F2400.00000
G1 F1920
G1 X69.977 Y149.253 E8.44532
G1 X70.483 Y149.253 E8.46038
G1 X127.401 Y92.335 E10.85533
G1 X126.824 Y93.333 E10.88964
G1 X126.855 Y93.387 E10.89147
G1 X70.989 Y149.253 E13.24215
G1 X71.495 Y149.253 E13.25721
G1 X127.040 Y93.707 E15.59439
G1 X127.226 Y94.028 E15.60542
G1 X72.001 Y149.253 E17.92910
G1 X72.507 Y149.253 E17.94416
G1 X127.411 Y94.349 E20.25435
G1 X127.596 Y94.670 E20.26537
G1 X73.013 Y149.253 E22.56206
G1 X73.519 Y149.253 E22.57711
G1 X127.781 Y94.991 E24.86030
G1 X127.966 Y95.311 E24.87133
G1 X74.025 Y149.253 E27.14102
G1 X74.531 Y149.253 E27.15607
G1 X128.152 Y95.632 E29.41227
G1 X128.337 Y95.953 E29.42329
G1 X75.037 Y149.253 E31.66598
G1 X75.544 Y149.253 E31.68104
G1 X128.522 Y96.274 E33.91023
G1 X128.577 Y96.369 E33.91350
G1 X128.933 Y96.369 E33.92409
G1 X76.050 Y149.253 E36.14927
G1 X76.556 Y149.253 E36.16433
G1 X129.439 Y96.369 E38.38951
G1 X129.945 Y96.369 E38.40456
G1 X77.062 Y149.253 E40.62975
G1 X77.568 Y149.253 E40.64480
G1 X130.451 Y96.369 E42.86998
G1 X130.957 Y96.369 E42.88504
G1 X78.074 Y149.253 E45.11022
G1 X78.580 Y149.253 E45.12528
G1 X131.463 Y96.369 E47.35046
G1 X131.969 Y96.369 E47.36552
G1 X79.086 Y149.253 E49.59070
G1 X79.592 Y149.253 E49.60576
G1 X149.253 Y79.592 E52.53688
G1 X149.253 Y80.098 E52.55194
G1 X80.098 Y149.253 E55.46178
G1 X80.604 Y149.253 E55.47683
G1 X149.253 Y80.604 E58.36538
G1 X149.253 Y81.110 E58.38043
G1 X81.110 Y149.253 E61.24768
G1 X81.616 Y149.253 E61.26274
G1 X149.253 Y81.616 E64.10870
G1 X149.253 Y82.122 E64.12375
G1 X82.122 Y149.253 E66.94842
G1 X82.628 Y149.253 E66.96347
G1 X149.253 Y82.628 E69.76685
G1 X149.253 Y83.134 E69.78190
G1 X83.134 Y149.253 E72.56398
G1 X83.640 Y149.253 E72.57904
G1 X149.253 Y83.640 E75.33983
G1 X149.253 Y84.146 E75.35488
G1 X84.146 Y149.253 E78.09438
G1 X84.652 Y149.253 E78.10943
G1 X149.253 Y84.652 E80.82763
G1 X149.253 Y85.158 E80.84269
G1 X85.158 Y149.253 E83.53960
G1 X85.664 Y149.253 E83.55466
G1 X149.253 Y85.664 E86.23027
G1 X149.253 Y86.170 E86.24533
G1 X86.170 Y149.253 E88.89965
G1 X86.676 Y149.253 E88.91471
G1 X149.253 Y86.676 E91.54774
G1 X149.253 Y87.182 E91.56280
G1 X87.182 Y149.253 E94.17453
G1 X87.688 Y149.253 E94.18959
G1 X149.253 Y87.688 E96.78004
G1 X149.253 Y88.195 E96.79509
G1 X88.194 Y149.253 E99.36424
G1 X88.701 Y149.253 E99.37930
G1 X149.253 Y88.701 E101.92716
G1 X149.253 Y89.207 E101.94222
G1 X89.207 Y149.253 E104.46878
G1 X89.713 Y149.253 E104.48384
G1 X149.253 Y89.713 E106.98912
G1 X149.253 Y90.219 E107.00417
G1 X90.219 Y149.253 E109.48815
G1 X90.725 Y149.253 E109.50321
G1 X149.253 Y90.725 E111.96590
G1 X149.253 Y91.231 E111.98096
G1 X91.231 Y149.253 E114.42235
G1 X91.737 Y149.253 E114.43741
G1 X149.253 Y91.737 E116.85751
G1 X149.253 Y92.243 E116.87257
G1 X92.243 Y149.253 E119.27138
G1 X92.749 Y149.253 E119.28644
G1 X149.253 Y92.749 E121.66396
G1 X149.253 Y93.255 E121.67901
G1 X93.255 Y149.253 E124.03524
G1 X93.761 Y149.253 E124.05029
G1 X149.253 Y93.761 E126.38523
G1 X149.253 Y94.267 E126.40028
G1 X94.267 Y149.253 E128.71392
G1 X94.773 Y149.253 E128.72898
G1 X149.253 Y94.773 E131.02133
G1 X149.253 Y95.279 E131.03638
G1 X95.279 Y149.253 E133.30744
G1 X95.785 Y149.253 E133.32250
G1 X149.253 Y95.785 E135.57226
G1 X149.253 Y96.291 E135.58731
G1 X96.291 Y149.253 E137.81578
G1 X96.797 Y149.253 E137.83084
G1 X149.253 Y96.797 E140.03802
G1 X149.253 Y97.303 E140.05307
G1 X97.303 Y149.253 E142.23896
G1 X97.809 Y149.253 E142.25401
G1 X149.253 Y97.809 E144.41861
G1 X149.253 Y98.315 E144.43366
G1 X98.315 Y149.253 E146.57696
G1 X98.821 Y149.253 E146.59202
G1 X149.253 Y98.821 E148.71402
G1 X149.253 Y99.327 E148.72908
G1 X99.327 Y149.253 E150.82979
G1 X99.833 Y149.253 E150.84485
G1 X149.253 Y99.833 E152.92427
G1 X149.253 Y100.339 E152.93933
G1 X100.339 Y149.253 E154.99746
G1 X100.845 Y149.253 E155.01251
G1 X149.253 Y100.845 E157.04935
G1 X149.253 Y101.352 E157.06440
G1 X101.351 Y149.253 E159.07995
G1 X101.858 Y149.253 E159.09500
G1 X149.253 Y101.858 E161.08925
G1 X149.253 Y102.364 E161.10431
G1 X102.364 Y149.253 E163.07727
G1 X102.870 Y149.253 E163.09232
G1 X149.253 Y102.870 E165.04399
G1 X149.253 Y103.376 E165.05904
G1 X103.376 Y149.253 E166.98942
G1 X103.882 Y149.253 E167.00447
G1 X149.253 Y103.882 E168.91355
G1 X149.253 Y104.388 E168.92861
G1 X104.388 Y149.253 E170.81639
G1 X104.894 Y149.253 E170.83145
G1 X149.253 Y104.894 E172.69794
G1 X149.253 Y105.400 E172.71300
G1 X105.400 Y149.253 E174.55820
G1 X105.906 Y149.253 E174.57326
G1 X149.253 Y105.906 E176.39717
G1 X149.253 Y106.412 E176.41222
G1 X106.412 Y149.253 E178.21484
G1 X106.918 Y149.253 E178.22990
G1 X149.253 Y106.918 E180.01122
G1 X149.253 Y107.424 E180.02627
G1 X107.424 Y149.253 E181.78631
G1 X107.930 Y149.253 E181.80136
G1 X149.253 Y107.930 E183.54010
G1 X149.253 Y108.436 E183.55516
G1 X108.436 Y149.253 E185.27260
G1 X108.942 Y149.253 E185.28766
G1 X149.253 Y108.942 E186.98381
G1 X149.253 Y109.448 E186.99887
G1 X109.448 Y149.253 E188.67373
G1 X109.954 Y149.253 E188.68878
G1 X149.253 Y109.954 E190.34235
G1 X149.253 Y110.460 E190.35741
G1 X110.460 Y149.253 E191.98968
G1 X110.966 Y149.253 E192.00474
G1 X149.253 Y110.966 E193.61572
G1 X149.253 Y111.472 E193.63077
G1 X111.472 Y149.253 E195.22046
G1 X111.978 Y149.253 E195.23552
G1 X149.253 Y111.978 E196.80392
G1 X149.253 Y112.484 E196.81897
G1 X112.484 Y149.253 E198.36608
G1 X112.990 Y149.253 E198.38113
G1 X149.253 Y112.990 E199.90694
G1 X149.253 Y113.496 E199.92200
G1 X113.496 Y149.253 E201.42652
G1 X114.002 Y149.253 E201.44157
G1 X149.253 Y114.002 E202.92480
G1 X149.253 Y114.508 E202.93985
G1 X114.508 Y149.253 E204.40179
G1 X115.015 Y149.253 E204.41684
G1 X149.253 Y115.015 E205.85748
G1 X149.253 Y115.521 E205.87254
G1 X115.521 Y149.253 E207.29189
G1 X116.027 Y149.253 E207.30694
G1 X149.253 Y116.027 E208.70500
G1 X149.253 Y116.533 E208.72006
G1 X116.533 Y149.253 E210.09682
G1 X117.039 Y149.253 E210.11187
G1 X149.253 Y117.039 E211.46734
G1 X149.253 Y117.545 E211.48240
G1 X117.545 Y149.253 E212.81658
G1 X118.051 Y149.253 E212.83163
G1 X149.253 Y118.051 E214.14452
G1 X149.253 Y118.557 E214.15957
G1 X118.557 Y149.253 E215.45116
G1 X119.063 Y149.253 E215.46622
G1 X149.253 Y119.063 E216.73652
G1 X149.253 Y119.569 E216.75157
G1 X119.569 Y149.253 E218.00058
G1 X120.075 Y149.253 E218.01564
G1 X149.253 Y120.075 E219.24335
G1 X149.253 Y120.581 E219.25841
G1 X120.581 Y149.253 E220.46483
G1 X121.087 Y149.253 E220.47988
G1 X149.253 Y121.087 E221.66501
G1 X149.253 Y121.593 E221.68007
G1 X121.593 Y149.253 E222.84390
G1 X122.099 Y149.253 E222.85896
G1 X149.253 Y122.099 E224.00150
G1 X149.253 Y122.605 E224.01656
G1 X122.605 Y149.253 E225.13781
G1 X123.111 Y149.253 E225.15286
G1 X149.253 Y123.111 E226.25282
G1 X149.253 Y123.617 E226.26788
G1 X123.617 Y149.253 E227.34654
G1 X124.123 Y149.253 E227.36160
G1 X149.253 Y124.123 E228.41897
G1 X149.253 Y124.629 E228.43403
G1 X124.629 Y149.253 E229.47010
G1 X125.135 Y149.253 E229.48516
G1 X149.253 Y125.135 E230.49995
G1 X149.253 Y125.641 E230.51500
G1 X125.641 Y149.253 E231.50850
G1 X126.147 Y149.253 E231.52355
G1 X149.253 Y126.147 E232.49575
G1 X149.253 Y126.653 E232.51081
G1 X126.653 Y149.253 E233.46172
G1 X127.159 Y149.253 E233.47678
G1 X149.253 Y127.159 E234.40639
G1 X149.253 Y127.665 E234.42145
G1 X127.665 Y149.253 E235.32977
G1 X128.172 Y149.253 E235.34483
G1 X149.253 Y128.172 E236.23186
G1 X149.253 Y128.678 E236.24691
G1 X128.678 Y149.253 E237.11265
G1 X129.184 Y149.253 E237.12771
G1 X149.253 Y129.184 E237.97215
G1 X149.253 Y129.690 E237.98721
G1 X129.690 Y149.253 E238.81036
G1 X130.196 Y149.253 E238.82542
G1 X149.253 Y130.196 E239.62728
G1 X149.253 Y130.702 E239.64233
G1 X130.702 Y149.253 E240.42290
G1 X131.208 Y149.253 E240.43795
G1 X149.253 Y131.208 E241.19723
G1 X149.253 Y131.714 E241.21228
G1 X131.714 Y149.253 E241.95027
G1 X132.220 Y149.253 E241.96532
G1 X149.253 Y132.220 E242.68201
G1 X149.253 Y132.726 E242.69707
G1 X132.726 Y149.253 E243.39246
G1 X133.232 Y149.253 E243.40752
G1 X149.253 Y133.232 E244.08162
G1 X149.253 Y133.738 E244.09668
G1 X133.738 Y149.253 E244.74949
G1 X134.244 Y149.253 E244.76455
G1 X149.253 Y134.244 E245.39606
G1 X149.253 Y134.750 E245.41112
G1 X134.750 Y149.253 E246.02134
G1 X135.256 Y149.253 E246.03640
G1 X149.253 Y135.256 E246.62533
G1 X149.253 Y135.762 E246.64039
G1 X135.762 Y149.253 E247.20803
G1 X136.268 Y149.253 E247.22309
G1 X149.253 Y136.268 E247.76943
G1 X149.253 Y136.774 E247.78449
G1 X136.774 Y149.253 E248.30954
G1 X137.280 Y149.253 E248.32460
G1 X149.253 Y137.280 E248.82836
G1 X149.253 Y137.786 E248.84342
G1 X137.786 Y149.253 E249.32589
G1 X138.292 Y149.253 E249.34094
G1 X149.253 Y138.292 E249.80212
G1 X149.253 Y138.798 E249.81718
G1 X138.798 Y149.253 E250.25706
G1 X139.304 Y149.253 E250.27212
G1 X149.253 Y139.304 E250.69071
G1 X149.253 Y139.810 E250.70576
G1 X139.810 Y149.253 E251.10306
G1 X140.316 Y149.253 E251.11812
G1 X149.253 Y140.316 E251.49412
G1 X149.253 Y140.822 E251.50918
G1 X140.822 Y149.253 E251.86389
G1 X141.329 Y149.253 E251.87895
G1 X149.253 Y141.329 E252.21237
G1 X149.253 Y141.835 E252.22742
G1 X141.835 Y149.253 E252.53955
G1 X142.341 Y149.253 E252.55461
G1 X149.253 Y142.341 E252.84544
G1 X149.253 Y142.847 E252.86050
G1 X142.847 Y149.253 E253.13004
G1 X143.353 Y149.253 E253.14510
G1 X149.253 Y143.353 E253.39335
G1 X149.253 Y143.859 E253.40840
G1 X143.859 Y149.253 E253.63536
G1 X144.365 Y149.253 E253.65042
G1 X149.253 Y144.365 E253.85608
G1 X149.253 Y144.871 E253.87114
G1 X144.871 Y149.253 E254.05551
G1 X145.377 Y149.253 E254.07056
G1 X149.253 Y145.377 E254.23364
G1 X149.253 Y145.883 E254.24870
G1 X145.883 Y149.253 E254.39049
G1 X146.389 Y149.253 E254.40554
G1 X149.253 Y146.389 E254.52604
G1 X149.253 Y146.895 E254.54109
G1 X146.895 Y149.253 E254.64029
G1 X147.401 Y149.253 E254.65535
G1 X149.253 Y147.401 E254.73326
G1 X149.253 Y147.907 E254.74831
G1 X147.907 Y149.253 E254.80493
G1 X148.413 Y149.253 E254.81998
G1 X149.253 Y148.413 E254.85531
G1 X149.253 Y148.919 E254.87036
G1 X148.919 Y149.253 E254.88439
G1 E248.88439 F2400.00000
G92 E0
G1 X131.905 Y96.434 F7800.000
G1 E6.00000 F2400.00000
G1 F1920
G1 X149.253 Y79.086 E6.72995
G1 X149.253 Y78.580 E6.74500
G1 X132.596 Y95.236 E7.44586
G1 X133.287 Y94.039 E7.48700
G1 X149.253 Y78.074 E8.15877
G1 X149.253 Y77.568 E8.17383
G1 X133.375 Y93.446 E8.84192
G1 X133.189 Y93.125 E8.85295
G1 X149.253 Y77.062 E9.52884
G1 X149.253 Y76.556 E9.54389
G1 X133.004 Y92.804 E10.22758
G1 X132.819 Y92.483 E10.23860
G1 X149.253 Y76.050 E10.93008
G1 X149.253 Y75.544 E10.94514
G1 X132.634 Y92.162 E11.64441
G1 X132.448 Y91.842 E11.65543
G1 X149.253 Y75.038 E12.36250
G1 X149.253 Y74.531 E12.37755
G1 X132.263 Y91.521 E13.09241
G1 X132.078 Y91.200 E13.10344
G1 X149.253 Y74.025 E13.82609
G1 X149.253 Y73.519 E13.84115
