; generated by Slic3r 1.3.0-dev on 2018-05-13 at 21:05:46

; external perimeters extrusion width = 0.44mm (1.86mm^3/s)
; perimeters extrusion width = 0.48mm (4.15mm^3/s)
; infill extrusion width = 0.48mm (4.65mm^3/s)
; solid infill extrusion width = 0.48mm (2.70mm^3/s)
; top infill extrusion width = 0.48mm (1.16mm^3/s)
; support material extrusion width = 0.44mm (4.85mm^3/s)

M107
M190 S60 ; set bed temperature and wait for it to be reached
M104 S212 ; set temperature
G28 ; home all axes
G1 Z5 F5000 ; lift nozzle

; Filament gcode

M109 S212 ; set temperature and wait for it to be reached
G21 ; set units to millimeters
G90 ; use absolute coordinates
M82 ; use absolute distances for extrusion
G92 E0
G1 Z0.100 F7800.000
G1 E-6.00000 F2400.00000
G92 E0
G1 X44.827 Y45.720 F7800.000
G1 E6.00000 F2400.00000
G1 F1920
G1 X46.583 Y44.220 E6.06856
G1 X48.743 Y43.405 E6.13711
G1 X50.000 Y43.286 E6.17460
G1 X150.000 Y43.286 E9.14373
G1 X152.275 Y43.683 E9.21229
G1 X154.280 Y44.827 E9.28085
G1 X155.780 Y46.583 E9.34940
G1 X156.595 Y48.743 E9.41796
G1 X156.714 Y50.000 E9.45545
G1 X156.714 Y150.000 E12.42458
G1 X156.317 Y152.275 E12.49314
G1 X155.173 Y154.280 E12.56169
G1 X153.417 Y155.780 E12.63025
G1 X151.257 Y156.595 E12.69880
G1 X150.000 Y156.714 E12.73630
G1 X50.000 Y156.714 E15.70543
G1 X47.725 Y156.317 E15.77398
G1 X45.720 Y155.173 E15.84254
G1 X44.220 Y153.417 E15.91109
G1 X43.405 Y151.257 E15.97965
G1 X43.286 Y150.000 E16.01714
G1 X43.286 Y50.000 E18.98627
G1 X43.683 Y47.725 E19.05483
G1 X44.797 Y45.772 E19.12160
G1 X45.181 Y45.854 F7800.000
G1 F1920
G1 X46.923 Y44.437 E19.18830
G1 X50.000 Y43.643 E19.28263
G1 X150.000 Y43.643 E22.25176
G1 X152.211 Y44.040 E22.31846
G1 X154.146 Y45.181 E22.38515
G1 X155.563 Y46.923 E22.45185
G1 X156.357 Y50.000 E22.54619
G1 X156.357 Y150.000 E25.51531
G1 X155.960 Y152.211 E25.58201
G1 X154.819 Y154.146 E25.64870
G1 X153.077 Y155.563 E25.71540
G1 X150.000 Y156.357 E25.80974
G1 X50.000 Y156.357 E28.77887
G1 X47.789 Y155.960 E28.84556
G1 X45.854 Y154.819 E28.91225
G1 X44.437 Y153.077 E28.97895
G1 X43.643 Y150.000 E29.07329
G1 X43.643 Y50.000 E32.04242
G1 X44.040 Y47.789 E32.10911
G1 X45.150 Y45.906 E32.17402
G1 E26.17402 F2400.00000
G92 E0
G1 X127.520 Y93.500 F7800.000
G1 E6.00000 F2400.00000
G1 F1920
G1 X128.842 Y91.211 E6.07848
G1 X131.485 Y91.211 E6.15696
G1 X132.807 Y93.500 E6.23545
G1 X131.485 Y95.789 E6.31393
G1 X128.842 Y95.789 E6.39241
G1 X127.550 Y93.552 E6.46911
G1 X127.932 Y93.500 F7800.000
G1 F1920
G1 X129.048 Y91.568 E6.53535
G1 X131.279 Y91.568 E6.60159
G1 X132.394 Y93.500 E6.66783
G1 X131.279 Y95.432 E6.73407
G1 X129.048 Y95.432 E6.80031
G1 X127.962 Y93.552 E6.86476
G1 X127.626 Y93.243 F7800.000
G1 E0.86476 F2400.00000
G92 E0
G1 X109.457 Y93.500 F7800.000
G1 E6.00000 F2400.00000
G1 F1920
G1 X108.135 Y95.789 E6.07848
G1 X105.492 Y95.789 E6.15696
G1 X104.170 Y93.500 E6.23545
G1 X105.492 Y91.211 E6.31393
G1 X108.135 Y91.211 E6.39241
G1 X109.427 Y93.448 E6.46911
G1 X109.044 Y93.500 F7800.000
G1 F1920
G1 X107.929 Y95.432 E6.53535
G1 X105.698 Y95.432 E6.60159
G1 X104.582 Y93.500 E6.66783
G1 X105.698 Y91.568 E6.73407
G1 X107.929 Y91.568 E6.80031
G1 X109.014 Y93.448 E6.86477
G1 X109.391 Y93.700 F7800.000
G1 E0.86477 F2400.00000
G92 E0
G1 X108.135 Y54.289 F7800.000
G1 E6.00000 F2400.00000
G1 F1920
G1 X109.457 Y52.000 E6.07848
G1 X108.624 Y50.557 E6.12795
G1 X128.353 Y50.557 E6.71375
G1 X127.520 Y52.000 E6.76322
G1 X128.842 Y54.289 E6.84170
G1 X131.485 Y54.289 E6.92018
G1 X132.807 Y52.000 E6.99866
G1 X131.974 Y50.557 E7.04813
G1 X149.443 Y50.557 E7.56682
G1 X149.443 Y149.443 E10.50287
G1 X50.557 Y149.443 E13.43892
G1 X50.557 Y50.557 E16.37497
G1 X105.003 Y50.557 E17.99154
G1 X104.170 Y52.000 E18.04101
G1 X105.492 Y54.289 E18.11950
G1 X108.075 Y54.289 E18.19620
G1 X107.929 Y53.932 F7800.000
G1 F1920
G1 X109.044 Y52.000 E18.26244
G1 X108.005 Y50.200 E18.32415
G1 X128.972 Y50.200 E18.94667
G1 X127.932 Y52.000 E19.00838
G1 X129.048 Y53.932 E19.07462
G1 X131.279 Y53.932 E19.14086
G1 X132.394 Y52.000 E19.20710
G1 X131.355 Y50.200 E19.26881
G1 X149.800 Y50.200 E19.81647
G1 X149.800 Y149.800 E22.77372
G1 X50.200 Y149.800 E25.73098
G1 X50.200 Y50.200 E28.68823
G1 X105.622 Y50.200 E30.33377
G1 X104.582 Y52.000 E30.39548
G1 X105.698 Y53.932 E30.46172
G1 X107.869 Y53.932 E30.52618
G1 X108.275 Y54.132 F7800.000
G1 E24.52618 F2400.00000
G92 E0
G1 X105.891 Y50.134 F7800.000
G1 E6.00000 F2400.00000
G1 F1920
G1 X107.736 Y50.134 E6.03453
G1 E0.03453 F2400.00000
G92 E0
G1 X129.241 Y50.134 F7800.000
G1 E6.00000 F2400.00000
G1 F1920
G1 X131.086 Y50.134 E6.03453
G1 E0.03453 F2400.00000
G92 E0
G1 X133.059 Y50.747 F7800.000
G1 E6.00000 F2400.00000
G1 F1920
G1 X132.535 Y51.272 E6.02205
G1 X132.721 Y51.592 E6.03307
G1 X133.566 Y50.747 E6.06862
G1 X134.072 Y50.747 E6.08368
G1 X132.906 Y51.913 E6.13273
G1 X133.052 Y52.167 E6.14144
G1 X132.907 Y52.418 E6.15007
G1 X134.578 Y50.747 E6.22036
G1 X135.084 Y50.747 E6.23541
G1 X132.216 Y53.615 E6.35608
G1 X131.525 Y54.813 E6.39722
G1 X135.590 Y50.747 E6.56826
G1 X136.096 Y50.747 E6.58332
G1 X50.747 Y136.096 E10.17454
G1 X50.747 Y136.602 E10.18959
G1 X136.602 Y50.747 E13.80210
G1 X137.108 Y50.747 E13.81716
G1 X50.747 Y137.108 E17.45096
G1 X50.747 Y137.614 E17.46602
G1 X137.614 Y50.747 E21.12111
G1 X138.120 Y50.747 E21.13617
G1 X50.747 Y138.120 E24.81256
G1 X50.747 Y138.626 E24.82761
G1 X138.626 Y50.747 E28.52529
G1 X139.132 Y50.747 E28.54035
G1 X50.747 Y139.132 E32.25932
G1 X50.747 Y139.638 E32.27438
G1 X139.638 Y50.747 E36.01465
G1 X140.144 Y50.747 E36.02970
G1 X50.747 Y140.144 E39.79126
G1 X50.747 Y140.650 E39.80632
G1 X140.650 Y50.747 E43.58917
G1 X141.156 Y50.747 E43.60423
G1 X50.747 Y141.156 E47.40837
G1 X50.747 Y141.662 E47.42343
G1 X141.662 Y50.747 E51.24887
G1 X142.168 Y50.747 E51.26392
G1 X50.747 Y142.168 E55.11065
G1 X50.747 Y142.674 E55.12571
G1 X142.674 Y50.747 E58.99373
G1 X143.180 Y50.747 E59.00879
G1 X50.747 Y143.180 E62.89810
G1 X50.747 Y143.686 E62.91316
G1 X143.686 Y50.747 E66.82377
G1 X144.192 Y50.747 E66.83882
G1 X50.747 Y144.192 E70.77072
G1 X50.747 Y144.698 E70.78578
G1 X144.698 Y50.747 E74.73897
G1 X145.204 Y50.747 E74.75403
G1 X50.747 Y145.204 E78.72852
G1 X50.747 Y145.710 E78.74357
G1 X105.017 Y91.441 E81.02708
G1 X104.326 Y92.638 E81.06822
G1 X50.747 Y146.216 E83.32264
G1 X50.747 Y146.722 E83.33770
G1 X104.002 Y93.468 E85.57851
G1 X104.187 Y93.789 E85.58953
G1 X50.747 Y147.229 E87.83813
G1 X50.747 Y147.735 E87.85319
G1 X104.373 Y94.110 E90.10958
G1 X104.558 Y94.430 E90.12060
G1 X50.747 Y148.241 E92.38479
G1 X50.747 Y148.747 E92.39985
G1 X104.743 Y94.751 E94.67183
G1 X104.928 Y95.072 E94.68285
G1 X50.748 Y149.253 E96.96262
G1 X51.254 Y149.253 E96.97767
G1 X105.113 Y95.393 E99.24394
G1 X105.299 Y95.714 E99.25496
G1 X51.760 Y149.253 E101.50773
G1 X52.266 Y149.253 E101.52279
G1 X105.539 Y95.980 E103.76437
G1 X106.045 Y95.980 E103.77943
G1 X52.772 Y149.253 E106.02101
G1 X53.278 Y149.253 E106.03606
G1 X106.551 Y95.980 E108.27764
G1 X107.057 Y95.980 E108.29270
G1 X53.784 Y149.253 E110.53428
G1 X54.290 Y149.253 E110.54933
G1 X107.563 Y95.980 E112.79091
G1 X108.069 Y95.980 E112.80597
G1 X54.796 Y149.253 E115.04755
G1 X55.302 Y149.253 E115.06261
G1 X149.253 Y55.302 E119.01578
G1 X149.253 Y55.808 E119.03084
G1 X55.808 Y149.253 E122.96273
G1 X56.314 Y149.253 E122.97778
G1 X149.253 Y56.314 E126.88837
G1 X149.253 Y56.820 E126.90343
G1 X56.820 Y149.253 E130.79273
G1 X57.326 Y149.253 E130.80779
G1 X149.253 Y57.326 E134.67579
G1 X149.253 Y57.832 E134.69085
G1 X57.832 Y149.253 E138.53756
G1 X58.338 Y149.253 E138.55262
G1 X149.253 Y58.338 E142.37804
G1 X149.253 Y58.844 E142.39310
G1 X58.844 Y149.253 E146.19723
G1 X59.350 Y149.253 E146.21228
G1 X149.253 Y59.350 E149.99512
G1 X149.253 Y59.856 E150.01018
G1 X59.856 Y149.253 E153.77172
G1 X60.362 Y149.253 E153.78678
G1 X149.253 Y60.362 E157.52703
G1 X149.253 Y60.868 E157.54208
G1 X60.868 Y149.253 E161.26104
G1 X61.374 Y149.253 E161.27610
G1 X149.253 Y61.374 E164.97376
G1 X149.253 Y61.881 E164.98882
G1 X61.881 Y149.253 E168.66519
G1 X62.387 Y149.253 E168.68025
G1 X149.253 Y62.387 E172.33533
G1 X149.253 Y62.893 E172.35038
G1 X62.893 Y149.253 E175.98417
G1 X63.399 Y149.253 E175.99923
G1 X149.253 Y63.399 E179.61172
G1 X149.253 Y63.905 E179.62678
G1 X63.905 Y149.253 E183.21798
G1 X64.411 Y149.253 E183.23304
G1 X149.253 Y64.411 E186.80295
G1 X149.253 Y64.917 E186.81800
G1 X64.917 Y149.253 E190.36662
G1 X65.423 Y149.253 E190.38168
G1 X149.253 Y65.423 E193.90900
G1 X149.253 Y65.929 E193.92406
G1 X65.929 Y149.253 E197.43009
G1 X66.435 Y149.253 E197.44514
G1 X149.253 Y66.435 E200.92988
G1 X149.253 Y66.941 E200.94494
G1 X66.941 Y149.253 E204.40838
G1 X67.447 Y149.253 E204.42344
G1 X149.253 Y67.447 E207.86559
G1 X149.253 Y67.953 E207.88065
G1 X67.953 Y149.253 E211.30151
G1 X68.459 Y149.253 E211.31657
G1 X149.253 Y68.459 E214.71614
G1 X149.253 Y68.965 E214.73119
G1 X68.965 Y149.253 E218.10947
G1 X69.471 Y149.253 E218.12452
G1 X149.253 Y69.471 E221.48151
G1 X149.253 Y69.977 E221.49656
G1 X69.977 Y149.253 E224.83225
G1 X70.483 Y149.253 E224.84731
G1 X128.132 Y91.603 E227.27303
G1 X128.469 Y91.020 E227.29305
G1 X128.715 Y91.020 E227.30038
G1 X149.253 Y70.483 E228.16453
G1 X149.253 Y70.989 E228.17959
G1 X129.221 Y91.020 E229.02245
G1 X129.727 Y91.020 E229.03751
G1 X149.253 Y71.495 E229.85907
G1 X149.253 Y72.001 E229.87413
G1 X130.233 Y91.020 E230.67440
G1 X130.739 Y91.020 E230.68946
G1 X149.253 Y72.507 E231.46844
G1 X149.253 Y73.013 E231.48350
G1 X131.245 Y91.020 E232.24119
G1 X131.524 Y91.020 E232.24949
G1 X131.608 Y91.164 E232.25443
G1 X149.253 Y73.519 E232.99688
G1 X149.253 Y74.025 E233.01194
G1 X131.793 Y91.485 E233.74660
G1 X131.978 Y91.806 E233.75762
G1 X149.253 Y74.531 E234.48448
G1 X149.253 Y75.038 E234.49954
G1 X132.163 Y92.127 E235.21861
G1 X132.348 Y92.448 E235.22963
G1 X149.253 Y75.544 E235.94091
G1 X149.253 Y76.050 E235.95596
G1 X132.534 Y92.768 E236.65945
G1 X132.719 Y93.089 E236.67047
G1 X149.253 Y76.556 E237.36616
G1 X149.253 Y77.062 E237.38121
G1 X132.904 Y93.410 E238.06911
G1 X133.052 Y93.667 E238.07793
G1 X132.914 Y93.906 E238.08616
G1 X149.253 Y77.568 E238.77365
G1 X149.253 Y78.074 E238.78871
G1 X132.223 Y95.104 E239.50528
G1 X131.531 Y96.301 E239.54641
G1 X149.253 Y78.580 E240.29207
G1 X149.253 Y79.086 E240.30713
G1 X79.086 Y149.253 E243.25955
G1 X79.592 Y149.253 E243.27461
G1 X149.253 Y79.592 E246.20574
G1 X149.253 Y80.098 E246.22079
G1 X80.098 Y149.253 E249.13063
G1 X80.604 Y149.253 E249.14568
G1 X149.253 Y80.604 E252.03423
G1 X149.253 Y81.110 E252.04928
G1 X81.110 Y149.253 E254.91653
G1 X81.616 Y149.253 E254.93159
G1 X149.253 Y81.616 E257.77755
G1 X149.253 Y82.122 E257.79260
G1 X82.122 Y149.253 E260.61727
G1 X82.628 Y149.253 E260.63233
G1 X149.253 Y82.628 E263.43570
G1 X149.253 Y83.134 E263.45076
G1 X83.134 Y149.253 E266.23283
G1 X83.640 Y149.253 E266.24789
G1 X149.253 Y83.640 E269.00868
G1 X149.253 Y84.146 E269.02373
G1 X84.146 Y149.253 E271.76323
G1 X84.652 Y149.253 E271.77828
G1 X149.253 Y84.652 E274.49649
G1 X149.253 Y85.158 E274.51154
G1 X85.158 Y149.253 E277.20845
G1 X85.664 Y149.253 E277.22351
G1 X149.253 Y85.664 E279.89912
G1 X149.253 Y86.170 E279.91418
G1 X86.170 Y149.253 E282.56850
G1 X86.676 Y149.253 E282.58356
G1 X149.253 Y86.676 E285.21659
G1 X149.253 Y87.182 E285.23165
G1 X87.182 Y149.253 E287.84339
G1 X87.688 Y149.253 E287.85844
G1 X149.253 Y87.688 E290.44889
G1 X149.253 Y88.195 E290.46394
G1 X88.194 Y149.253 E293.03310
G1 X88.701 Y149.253 E293.04815
G1 X149.253 Y88.701 E295.59601
G1 X149.253 Y89.207 E295.61107
G1 X89.207 Y149.253 E298.13764
G1 X89.713 Y149.253 E298.15269
G1 X149.253 Y89.713 E300.65797
G1 X149.253 Y90.219 E300.67302
G1 X90.219 Y149.253 E303.15701
G1 X90.725 Y149.253 E303.17206
G1 X149.253 Y90.725 E305.63475
G1 X149.253 Y91.231 E305.64981
G1 X91.231 Y149.253 E308.09120
G1 X91.737 Y149.253 E308.10626
G1 X149.253 Y91.737 E310.52636
G1 X149.253 Y92.243 E310.54142
G1 X92.243 Y149.253 E312.94023
G1 X92.749 Y149.253 E312.95529
G1 X149.253 Y92.749 E315.33281
G1 X149.253 Y93.255 E315.34786
G1 X93.255 Y149.253 E317.70409
G1 X93.761 Y149.253 E317.71915
G1 X149.253 Y93.761 E320.05408
G1 X149.253 Y94.267 E320.06914
G1 X94.267 Y149.253 E322.38278
G1 X94.773 Y149.253 E322.39783
G1 X149.253 Y94.773 E324.69018
G1 X149.253 Y95.279 E324.70524
G1 X95.279 Y149.253 E326.97629
G1 X95.785 Y149.253 E326.99135
G1 X149.253 Y95.785 E329.24111
G1 X149.253 Y96.291 E329.25617
G1 X96.291 Y149.253 E331.48464
G1 X96.797 Y149.253 E331.49969
G1 X149.253 Y96.797 E333.70687
G1 X149.253 Y97.303 E333.72193
G1 X97.303 Y149.253 E335.90781
G1 X97.809 Y149.253 E335.92287
G1 X149.253 Y97.809 E338.08746
G1 X149.253 Y98.315 E338.10251
G1 X98.315 Y149.253 E340.24581
G1 X98.821 Y149.253 E340.26087
G1 X149.253 Y98.821 E342.38288
G1 X149.253 Y99.327 E342.39793
G1 X99.327 Y149.253 E344.49865
G1 X99.833 Y149.253 E344.51370
G1 X149.253 Y99.833 E346.59312
G1 X149.253 Y100.339 E346.60818
G1 X100.339 Y149.253 E348.66631
G1 X100.845 Y149.253 E348.68136
G1 X149.253 Y100.845 E350.71820
G1 X149.253 Y101.352 E350.73326
G1 X101.351 Y149.253 E352.74880
G1 X101.858 Y149.253 E352.76385
G1 X149.253 Y101.858 E354.75810
G1 X149.253 Y102.364 E354.77316
G1 X102.364 Y149.253 E356.74612
G1 X102.870 Y149.253 E356.76117
G1 X149.253 Y102.870 E358.71284
G1 X149.253 Y103.376 E358.72790
G1 X103.376 Y149.253 E360.65827
G1 X103.882 Y149.253 E360.67332
G1 X149.253 Y103.882 E362.58240
G1 X149.253 Y104.388 E362.59746
G1 X104.388 Y149.253 E364.48525
G1 X104.894 Y149.253 E364.50030
G1 X149.253 Y104.894 E366.36680
G1 X149.253 Y105.400 E366.38185
G1 X105.400 Y149.253 E368.22705
G1 X105.906 Y149.253 E368.24211
G1 X149.253 Y105.906 E370.06602
G1 X149.253 Y106.412 E370.08107
G1 X106.412 Y149.253 E371.88369
G1 X106.918 Y149.253 E371.89875
G1 X149.253 Y106.918 E373.68007
G1 X149.253 Y107.424 E373.69513
G1 X107.424 Y149.253 E375.45516
G1 X107.930 Y149.253 E375.47021
G1 X149.253 Y107.930 E377.20895
G1 X149.253 Y108.436 E377.22401
G1 X108.436 Y149.253 E378.94145
G1 X108.942 Y149.253 E378.95651
G1 X149.253 Y108.942 E380.65266
G1 X149.253 Y109.448 E380.66772
G1 X109.448 Y149.253 E382.34258
G1 X109.954 Y149.253 E382.35763
G1 X149.253 Y109.954 E384.01120
G1 X149.253 Y110.460 E384.02626
G1 X110.460 Y149.253 E385.65853
G1 X110.966 Y149.253 E385.67359
G1 X149.253 Y110.966 E387.28457
G1 X149.253 Y111.472 E387.29963
G1 X111.472 Y149.253 E388.88931
G1 X111.978 Y149.253 E388.90437
G1 X149.253 Y111.978 E390.47277
G1 X149.253 Y112.484 E390.48782
G1 X112.484 Y149.253 E392.03493
G1 X112.990 Y149.253 E392.04998
G1 X149.253 Y112.990 E393.57579
G1 X149.253 Y113.496 E393.59085
G1 X113.496 Y149.253 E395.09537
G1 X114.002 Y149.253 E395.11042
G1 X149.253 Y114.002 E396.59365
G1 X149.253 Y114.508 E396.60871
G1 X114.508 Y149.253 E398.07064
G1 X115.015 Y149.253 E398.08570
G1 X149.253 Y115.015 E399.52634
G1 X149.253 Y115.521 E399.54139
G1 X115.521 Y149.253 E400.96074
G1 X116.027 Y149.253 E400.97580
G1 X149.253 Y116.027 E402.37385
G1 X149.253 Y116.533 E402.38891
G1 X116.533 Y149.253 E403.76567
G1 X117.039 Y149.253 E403.78073
G1 X149.253 Y117.039 E405.13619
G1 X149.253 Y117.545 E405.15125
G1 X117.545 Y149.253 E406.48543
G1 X118.051 Y149.253 E406.50048
G1 X149.253 Y118.051 E407.81337
G1 X149.253 Y118.557 E407.82842
G1 X118.557 Y149.253 E409.12002
G1 X119.063 Y149.253 E409.13507
G1 X149.253 Y119.063 E410.40537
G1 X149.253 Y119.569 E410.42043
G1 X119.569 Y149.253 E411.66943
G1 X120.075 Y149.253 E411.68449
G1 X149.253 Y120.075 E412.91220
G1 X149.253 Y120.581 E412.92726
G1 X120.581 Y149.253 E414.13368
G1 X121.087 Y149.253 E414.14874
G1 X149.253 Y121.087 E415.33386
G1 X149.253 Y121.593 E415.34892
G1 X121.593 Y149.253 E416.51275
G1 X122.099 Y149.253 E416.52781
G1 X149.253 Y122.099 E417.67035
G1 X149.253 Y122.605 E417.68541
G1 X122.605 Y149.253 E418.80666
G1 X123.111 Y149.253 E418.82172
G1 X149.253 Y123.111 E419.92167
G1 X149.253 Y123.617 E419.93673
G1 X123.617 Y149.253 E421.01539
G1 X124.123 Y149.253 E421.03045
G1 X149.253 Y124.123 E422.08782
G1 X149.253 Y124.629 E422.10288
G1 X124.629 Y149.253 E423.13896
G1 X125.135 Y149.253 E423.15401
G1 X149.253 Y125.135 E424.16880
